initial_LUT.cube
TITLE LUT_Gen0_Luma.cube
LUT_1D_SIZE 1024
#ZRG
0 0 0
3.65222442415506E-012 3.65222442415506E-012 3.65222442415506E-012
5.84355907864809E-011 5.84355907864809E-011 5.84355907864809E-011
2.9583017835656E-010 2.9583017835656E-010 2.9583017835656E-010
9.34969452583695E-010 9.34969452583695E-010 9.34969452583695E-010
2.28264026509691E-009 2.28264026509691E-009 2.28264026509691E-009
4.73328285370495E-009 4.73328285370495E-009 4.73328285370495E-009
8.76899084239629E-009 8.76899084239629E-009 8.76899084239629E-009
0.000000015 0.000000015 0.000000015
0.000000024 0.000000024 0.000000024
3.65222442415506E-008 3.65222442415506E-008 3.65222442415506E-008
5.34722177940542E-008 5.34722177940542E-008 5.34722177940542E-008
7.57325256592793E-008 7.57325256592793E-008 7.57325256592793E-008
1.04311181778293E-007 1.04311181778293E-007 1.04311181778293E-007
1.40303853478341E-007 1.40303853478341E-007 1.40303853478341E-007
1.8489386147285E-007 1.8489386147285E-007 1.8489386147285E-007
2.39352179861426E-007 2.39352179861426E-007 2.39352179861426E-007
0.000000305 0.000000305 0.000000305
3.83395911150101E-007 3.83395911150101E-007 3.83395911150101E-007
0.000000476 0.000000476 0.000000476
5.84355907864809E-007 5.84355907864809E-007 5.84355907864809E-007
7.102882582341E-007 7.102882582341E-007 7.102882582341E-007
8.55555484704867E-007 8.55555484704867E-007 8.55555484704867E-007
0.000001022 0.000001022 0.000001022
1.21172041054847E-006 1.21172041054847E-006 1.21172041054847E-006
1.42665016568557E-006 1.42665016568557E-006 1.42665016568557E-006
0.000001669 0.000001669 0.000001669
1.94094180019739E-006 1.94094180019739E-006 1.94094180019739E-006
2.24486165565345E-006 2.24486165565345E-006 2.24486165565345E-006
2.58314894294081E-006 2.58314894294081E-006 2.58314894294081E-006
2.9583017835656E-006 2.9583017835656E-006 2.9583017835656E-006
3.3729059524201E-006 3.3729059524201E-006 3.3729059524201E-006
3.82963487778281E-006 3.82963487778281E-006 3.82963487778281E-006
4.33124964131839E-006 4.33124964131839E-006 4.33124964131839E-006
4.88059897807767E-006 4.88059897807767E-006 4.88059897807767E-006
5.48061927649768E-006 5.48061927649768E-006 5.48061927649768E-006
6.13433457840162E-006 6.13433457840162E-006 6.13433457840162E-006
6.84485657899887E-006 6.84485657899887E-006 6.84485657899887E-006
7.61538462688498E-006 7.61538462688498E-006 7.61538462688498E-006
8.4492057240417E-006 8.4492057240417E-006 8.4492057240417E-006
9.34969452583695E-006 9.34969452583695E-006 9.34969452583695E-006
1.03203133410248E-005 1.03203133410248E-005 1.03203133410248E-005
1.13646121317456E-005 1.13646121317456E-005 1.13646121317456E-005
1.24862285135257E-005 1.24862285135257E-005 1.24862285135257E-005
1.36888877552779E-005 1.36888877552779E-005 1.36888877552779E-005
1.49764027793008E-005 1.49764027793008E-005 1.49764027793008E-005
1.63526741612796E-005 1.63526741612796E-005 1.63526741612796E-005
1.78216901302854E-005 1.78216901302854E-005 1.78216901302854E-005
1.93875265687755E-005 1.93875265687755E-005 1.93875265687755E-005
2.10543470125935E-005 2.10543470125935E-005 2.10543470125935E-005
2.28264026509691E-005 2.28264026509691E-005 2.28264026509691E-005
0.000024708 0.000024708 0.000024708
2.67036625352429E-005 2.67036625352429E-005 2.67036625352429E-005
2.88178074265314E-005 2.88178074265314E-005 2.88178074265314E-005
3.10550688031582E-005 3.10550688031582E-005 3.10550688031582E-005
3.34201361212839E-005 3.34201361212839E-005 3.34201361212839E-005
3.59177864904552E-005 3.59177864904552E-005 3.59177864904552E-005
3.85528846736052E-005 3.85528846736052E-005 3.85528846736052E-005
4.1330383087053E-005 4.1330383087053E-005 4.1330383087053E-005
4.42553218005039E-005 4.42553218005039E-005 4.42553218005039E-005
4.73328285370496E-005 4.73328285370496E-005 4.73328285370496E-005
5.05681186731675E-005 5.05681186731675E-005 5.05681186731675E-005
5.39664952387216E-005 5.39664952387216E-005 5.39664952387216E-005
5.75333489169621E-005 5.75333489169621E-005 5.75333489169621E-005
6.1274158044525E-005 6.1274158044525E-005 6.1274158044525E-005
6.51944886114329E-005 6.51944886114329E-005 6.51944886114329E-005
0.0000693 0.0000693 0.0000693
7.35964162903039E-005 7.35964162903039E-005 7.35964162903039E-005
7.80895836492427E-005 7.80895836492427E-005 7.80895836492427E-005
8.2785412941478E-005 8.2785412941478E-005 8.2785412941478E-005
8.76899084239629E-005 8.76899084239629E-005 8.76899084239629E-005
9.2809162007037E-005 9.2809162007037E-005 9.2809162007037E-005
9.81493532544259E-005 9.81493532544259E-005 9.81493532544259E-005
0.0001037167 0.0001037167 0.0001037167
0.0001095177 0.0001095177 0.0001095177
0.0001155587 0.0001155587 0.0001155587
0.0001218462 0.0001218462 0.0001218462
0.0001283868 0.0001283868 0.0001283868
0.0001351873 0.0001351873 0.0001351873
0.0001422544 0.0001422544 0.0001422544
0.0001495951 0.0001495951 0.0001495951
0.0001572163 0.0001572163 0.0001572163
0.000165125 0.000165125 0.000165125
0.0001733284 0.0001733284 0.0001733284
0.0001818338 0.0001818338 0.0001818338
0.0001906484 0.0001906484 0.0001906484
0.0001997797 0.0001997797 0.0001997797
0.0002092351 0.0002092351 0.0002092351
0.0002190222 0.0002190222 0.0002190222
0.0002291487 0.0002291487 0.0002291487
0.0002396224 0.0002396224 0.0002396224
0.0002504511 0.0002504511 0.0002504511
0.0002616428 0.0002616428 0.0002616428
0.0002732054 0.0002732054 0.0002732054
0.000285147 0.000285147 0.000285147
0.000297476 0.000297476 0.000297476
0.0003102004 0.0003102004 0.0003102004
0.0003233288 0.0003233288 0.0003233288
0.0003368696 0.0003368696 0.0003368696
0.0003508312 0.0003508312 0.0003508312
0.0003652224 0.0003652224 0.0003652224
0.0003800519 0.0003800519 0.0003800519
0.0003953285 0.0003953285 0.0003953285
0.0004110611 0.0004110611 0.0004110611
0.0004272586 0.0004272586 0.0004272586
0.0004439302 0.0004439302 0.0004439302
0.0004610849 0.0004610849 0.0004610849
0.0004787321 0.0004787321 0.0004787321
0.0004968811 0.0004968811 0.0004968811
0.0005155413 0.0005155413 0.0005155413
0.0005347222 0.0005347222 0.0005347222
0.0005544334 0.0005544334 0.0005544334
0.0005746846 0.0005746846 0.0005746846
0.0005954856 0.0005954856 0.0005954856
0.0006168462 0.0006168462 0.0006168462
0.0006387763 0.0006387763 0.0006387763
0.0006612861 0.0006612861 0.0006612861
0.0006843857 0.0006843857 0.0006843857
0.0007080851 0.0007080851 0.0007080851
0.0007323949 0.0007323949 0.0007323949
0.0007573253 0.0007573253 0.0007573253
0.0007828867 0.0007828867 0.0007828867
0.0008090899 0.0008090899 0.0008090899
0.0008359454 0.0008359454 0.0008359454
0.0008634639 0.0008634639 0.0008634639
0.0008916564 0.0008916564 0.0008916564
0.0009205336 0.0009205336 0.0009205336
0.0009501066 0.0009501066 0.0009501066
0.0009803865 0.0009803865 0.0009803865
0.0010113845 0.0010113845 0.0010113845
0.0010431118 0.0010431118 0.0010431118
0.0010755798 0.0010755798 0.0010755798
0.0011087999 0.0011087999 0.0011087999
0.0011427837 0.0011427837 0.0011427837
0.0011775427 0.0011775427 0.0011775427
0.0012130886 0.0012130886 0.0012130886
0.0012494333 0.0012494333 0.0012494333
0.0012865887 0.0012865887 0.0012865887
0.0013245666 0.0013245666 0.0013245666
0.0013633792 0.0013633792 0.0013633792
0.0014030385 0.0014030385 0.0014030385
0.0014435569 0.0014435569 0.0014435569
0.0014849466 0.0014849466 0.0014849466
0.00152722 0.00152722 0.00152722
0.0015703897 0.0015703897 0.0015703897
0.0016144681 0.0016144681 0.0016144681
0.001659468 0.001659468 0.001659468
0.0017054021 0.0017054021 0.0017054021
0.0017522833 0.0017522833 0.0017522833
0.0018001244 0.0018001244 0.0018001244
0.0018489386 0.0018489386 0.0018489386
0.0018987389 0.0018987389 0.0018987389
0.0019495385 0.0019495385 0.0019495385
0.0020013506 0.0020013506 0.0020013506
0.0020541887 0.0020541887 0.0020541887
0.0021080662 0.0021080662 0.0021080662
0.0021629967 0.0021629967 0.0021629967
0.0022189937 0.0022189937 0.0022189937
0.002276071 0.002276071 0.002276071
0.0023342424 0.0023342424 0.0023342424
0.0023935218 0.0023935218 0.0023935218
0.0024539232 0.0024539232 0.0024539232
0.0025154606 0.0025154606 0.0025154606
0.0025781482 0.0025781482 0.0025781482
0.0026420002 0.0026420002 0.0026420002
0.002707031 0.002707031 0.002707031
0.002773255 0.002773255 0.002773255
0.0028406867 0.0028406867 0.0028406867
0.0029093407 0.0029093407 0.0029093407
0.0029792317 0.0029792317 0.0029792317
0.0030503744 0.0030503744 0.0030503744
0.0031227837 0.0031227837 0.0031227837
0.0031964745 0.0031964745 0.0031964745
0.0032714619 0.0032714619 0.0032714619
0.003347761 0.003347761 0.003347761
0.003425387 0.003425387 0.003425387
0.0035043553 0.0035043553 0.0035043553
0.0035846811 0.0035846811 0.0035846811
0.0036663799 0.0036663799 0.0036663799
0.0037494674 0.0037494674 0.0037494674
0.0038339591 0.0038339591 0.0038339591
0.0039198708 0.0039198708 0.0039198708
0.0040072184 0.0040072184 0.0040072184
0.0040960176 0.0040960176 0.0040960176
0.0041862846 0.0041862846 0.0041862846
0.0042780354 0.0042780354 0.0042780354
0.0043712861 0.0043712861 0.0043712861
0.0044660531 0.0044660531 0.0044660531
0.0045623527 0.0045623527 0.0045623527
0.0046602013 0.0046602013 0.0046602013
0.0047596154 0.0047596154 0.0047596154
0.0048606117 0.0048606117 0.0048606117
0.0049632068 0.0049632068 0.0049632068
0.0050674176 0.0050674176 0.0050674176
0.0051732608 0.0051732608 0.0051732608
0.0052807536 0.0052807536 0.0052807536
0.0053899128 0.0053899128 0.0053899128
0.0055007557 0.0055007557 0.0055007557
0.0056132995 0.0056132995 0.0056132995
0.0057275615 0.0057275615 0.0057275615
0.0058435591 0.0058435591 0.0058435591
0.0059613097 0.0059613097 0.0059613097
0.006080831 0.006080831 0.006080831
0.0062021406 0.0062021406 0.0062021406
0.0063252563 0.0063252563 0.0063252563
0.0064501958 0.0064501958 0.0064501958
0.0065769772 0.0065769772 0.0065769772
0.0067056184 0.0067056184 0.0067056184
0.0068361376 0.0068361376 0.0068361376
0.0069685529 0.0069685529 0.0069685529
0.0071028826 0.0071028826 0.0071028826
0.007239145 0.007239145 0.007239145
0.0073773587 0.0073773587 0.0073773587
0.0075175421 0.0075175421 0.0075175421
0.0076597139 0.0076597139 0.0076597139
0.0078038928 0.0078038928 0.0078038928
0.0079500976 0.0079500976 0.0079500976
0.0080983472 0.0080983472 0.0080983472
0.0082486605 0.0082486605 0.0082486605
0.0084010567 0.0084010567 0.0084010567
0.0085555548 0.0085555548 0.0085555548
0.0087121742 0.0087121742 0.0087121742
0.0088709341 0.0088709341 0.0088709341
0.009031854 0.009031854 0.009031854
0.0091949533 0.0091949533 0.0091949533
0.0093602517 0.0093602517 0.0093602517
0.0095277689 0.0095277689 0.0095277689
0.0096975245 0.0096975245 0.0096975245
0.0098695385 0.0098695385 0.0098695385
0.0100438308 0.0100438308 0.0100438308
0.0102204214 0.0102204214 0.0102204214
0.0103993304 0.0103993304 0.0103993304
0.0105805781 0.0105805781 0.0105805781
0.0107641847 0.0107641847 0.0107641847
0.0109501706 0.0109501706 0.0109501706
0.0111385563 0.0111385563 0.0111385563
0.0113293624 0.0113293624 0.0113293624
0.0115226094 0.0115226094 0.0115226094
0.0117183181 0.0117183181 0.0117183181
0.0119165094 0.0119165094 0.0119165094
0.0121172041 0.0121172041 0.0121172041
0.0123204232 0.0123204232 0.0123204232
0.0125261879 0.0125261879 0.0125261879
0.0127345192 0.0127345192 0.0127345192
0.0129454384 0.0129454384 0.0129454384
0.0131589669 0.0131589669 0.0131589669
0.0133751261 0.0133751261 0.0133751261
0.0135939375 0.0135939375 0.0135939375
0.0138154228 0.0138154228 0.0138154228
0.0140396036 0.0140396036 0.0140396036
0.0142665017 0.0142665017 0.0142665017
0.0144961389 0.0144961389 0.0144961389
0.0147285373 0.0147285373 0.0147285373
0.0149637189 0.0149637189 0.0149637189
0.0152017058 0.0152017058 0.0152017058
0.0154425202 0.0154425202 0.0154425202
0.0156861845 0.0156861845 0.0156861845
0.0159327209 0.0159327209 0.0159327209
0.0161821522 0.0161821522 0.0161821522
0.0164345006 0.0164345006 0.0164345006
0.0166897891 0.0166897891 0.0166897891
0.0169480402 0.0169480402 0.0169480402
0.0172092769 0.0172092769 0.0172092769
0.017473522 0.017473522 0.017473522
0.0177407985 0.0177407985 0.0177407985
0.0180111296 0.0180111296 0.0180111296
0.0182845385 0.0182845385 0.0182845385
0.0185610483 0.0185610483 0.0185610483
0.0188406826 0.0188406826 0.0188406826
0.0191234646 0.0191234646 0.0191234646
0.019409418 0.019409418 0.019409418
0.0196985664 0.0196985664 0.0196985664
0.0199909334 0.0199909334 0.0199909334
0.0202865429 0.0202865429 0.0202865429
0.0205854188 0.0205854188 0.0205854188
0.0208875851 0.0208875851 0.0208875851
0.0211930657 0.0211930657 0.0211930657
0.0215018849 0.0215018849 0.0215018849
0.0218140669 0.0218140669 0.0218140669
0.022129636 0.022129636 0.022129636
0.0224486166 0.0224486166 0.0224486166
0.0227710332 0.0227710332 0.0227710332
0.0230969104 0.0230969104 0.0230969104
0.0234262729 0.0234262729 0.0234262729
0.0237591455 0.0237591455 0.0237591455
0.0240955529 0.0240955529 0.0240955529
0.0244355202 0.0244355202 0.0244355202
0.0247790723 0.0247790723 0.0247790723
0.0251262344 0.0251262344 0.0251262344
0.0254770317 0.0254770317 0.0254770317
0.0258314894 0.0258314894 0.0258314894
0.026189633 0.026189633 0.026189633
0.0265514878 0.0265514878 0.0265514878
0.0269170795 0.0269170795 0.0269170795
0.0272864337 0.0272864337 0.0272864337
0.0276595761 0.0276595761 0.0276595761
0.0280365325 0.0280365325 0.0280365325
0.0284173289 0.0284173289 0.0284173289
0.0288019912 0.0288019912 0.0288019912
0.0291905454 0.0291905454 0.0291905454
0.0295830178 0.0295830178 0.0295830178
0.0299794347 0.0299794347 0.0299794347
0.0303798222 0.0303798222 0.0303798222
0.030784207 0.030784207 0.030784207
0.0311926154 0.0311926154 0.0311926154
0.0316050742 0.0316050742 0.0316050742
0.0320216099 0.0320216099 0.0320216099
0.0324422494 0.0324422494 0.0324422494
0.0328670195 0.0328670195 0.0328670195
0.0332959472 0.0332959472 0.0332959472
0.0337290595 0.0337290595 0.0337290595
0.0341663836 0.0341663836 0.0341663836
0.0346079466 0.0346079466 0.0346079466
0.035053776 0.035053776 0.035053776
0.0355038989 0.0355038989 0.0355038989
0.0359583431 0.0359583431 0.0359583431
0.0364171359 0.0364171359 0.0364171359
0.0368803051 0.0368803051 0.0368803051
0.0373478784 0.0373478784 0.0373478784
0.0378198837 0.0378198837 0.0378198837
0.0382963488 0.0382963488 0.0382963488
0.0387773017 0.0387773017 0.0387773017
0.0392627707 0.0392627707 0.0392627707
0.0397527837 0.0397527837 0.0397527837
0.0402473692 0.0402473692 0.0402473692
0.0407465554 0.0407465554 0.0407465554
0.0412503708 0.0412503708 0.0412503708
0.0417588439 0.0417588439 0.0417588439
0.0422720034 0.0422720034 0.0422720034
0.042789878 0.042789878 0.042789878
0.0433124964 0.0433124964 0.0433124964
0.0438398876 0.0438398876 0.0438398876
0.0443720804 0.0443720804 0.0443720804
0.044909104 0.044909104 0.044909104
0.0454509875 0.0454509875 0.0454509875
0.0459977602 0.0459977602 0.0459977602
0.0465494513 0.0465494513 0.0465494513
0.0471060903 0.0471060903 0.0471060903
0.0476677066 0.0476677066 0.0476677066
0.0482343299 0.0482343299 0.0482343299
0.0488059898 0.0488059898 0.0488059898
0.049382716 0.049382716 0.049382716
0.0499645385 0.0499645385 0.0499645385
0.0505514872 0.0505514872 0.0505514872
0.051143592 0.051143592 0.051143592
0.0517408831 0.0517408831 0.0517408831
0.0523433907 0.0523433907 0.0523433907
0.052951145 0.052951145 0.052951145
0.0535641765 0.0535641765 0.0535641765
0.0541825156 0.0541825156 0.0541825156
0.0548061928 0.0548061928 0.0548061928
0.0554352388 0.0554352388 0.0554352388
0.0560696842 0.0560696842 0.0560696842
0.05670956 0.05670956 0.05670956
0.0573548971 0.0573548971 0.0573548971
0.0580057263 0.0580057263 0.0580057263
0.0586620787 0.0586620787 0.0586620787
0.0593239856 0.0593239856 0.0593239856
0.0599914782 0.0599914782 0.0599914782
0.0606645878 0.0606645878 0.0606645878
0.0613433458 0.0613433458 0.0613433458
0.0620277837 0.0620277837 0.0620277837
0.0627179333 0.0627179333 0.0627179333
0.063413826 0.063413826 0.063413826
0.0641154937 0.0641154937 0.0641154937
0.0648229684 0.0648229684 0.0648229684
0.0655362818 0.0655362818 0.0655362818
0.0662554661 0.0662554661 0.0662554661
0.0669805534 0.0669805534 0.0669805534
0.0677115758 0.0677115758 0.0677115758
0.0684485658 0.0684485658 0.0684485658
0.0691915556 0.0691915556 0.0691915556
0.0699405778 0.0699405778 0.0699405778
0.0706956649 0.0706956649 0.0706956649
0.0714568496 0.0714568496 0.0714568496
0.0722241646 0.0722241646 0.0722241646
0.0729976428 0.0729976428 0.0729976428
0.073777317 0.073777317 0.073777317
0.0745632202 0.0745632202 0.0745632202
0.0753553856 0.0753553856 0.0753553856
0.0761538463 0.0761538463 0.0761538463
0.0769586355 0.0769586355 0.0769586355
0.0777697868 0.0777697868 0.0777697868
0.0785873333 0.0785873333 0.0785873333
0.0794113088 0.0794113088 0.0794113088
0.0802417468 0.0802417468 0.0802417468
0.081078681 0.081078681 0.081078681
0.0819221453 0.0819221453 0.0819221453
0.0827721734 0.0827721734 0.0827721734
0.0836287994 0.0836287994 0.0836287994
0.0844920572 0.0844920572 0.0844920572
0.0853619812 0.0853619812 0.0853619812
0.0862386054 0.0862386054 0.0862386054
0.0871219642 0.0871219642 0.0871219642
0.0880120919 0.0880120919 0.0880120919
0.0889090232 0.0889090232 0.0889090232
0.0898127926 0.0898127926 0.0898127926
0.0907234346 0.0907234346 0.0907234346
0.0916409842 0.0916409842 0.0916409842
0.0925654761 0.0925654761 0.0925654761
0.0934969453 0.0934969453 0.0934969453
0.0944354267 0.0944354267 0.0944354267
0.0953809555 0.0953809555 0.0953809555
0.0963335669 0.0963335669 0.0963335669
0.0972932962 0.0972932962 0.0972932962
0.0982601786 0.0982601786 0.0982601786
0.0992342498 0.0992342498 0.0992342498
0.1002155452 0.1002155452 0.1002155452
0.1012041004 0.1012041004 0.1012041004
0.1021999512 0.1021999512 0.1021999512
0.1032031334 0.1032031334 0.1032031334
0.1042136829 0.1042136829 0.1042136829
0.1052316356 0.1052316356 0.1052316356
0.1062570276 0.1062570276 0.1062570276
0.1072898952 0.1072898952 0.1072898952
0.1083302744 0.1083302744 0.1083302744
0.1093782017 0.1093782017 0.1093782017
0.1104337135 0.1104337135 0.1104337135
0.1114968463 0.1114968463 0.1114968463
0.1125676367 0.1125676367 0.1125676367
0.1136461213 0.1136461213 0.1136461213
0.114732337 0.114732337 0.114732337
0.1158263205 0.1158263205 0.1158263205
0.1169281089 0.1169281089 0.1169281089
0.1180377392 0.1180377392 0.1180377392
0.1191552485 0.1191552485 0.1191552485
0.120280674 0.120280674 0.120280674
0.1214140529 0.1214140529 0.1214140529
0.1225554228 0.1225554228 0.1225554228
0.123704821 0.123704821 0.123704821
0.1248622851 0.1248622851 0.1248622851
0.1260278528 0.1260278528 0.1260278528
0.1272015618 0.1272015618 0.1272015618
0.1283834499 0.1283834499 0.1283834499
0.1295735551 0.1295735551 0.1295735551
0.1307719152 0.1307719152 0.1307719152
0.1319785685 0.1319785685 0.1319785685
0.1331935531 0.1331935531 0.1331935531
0.1344169072 0.1344169072 0.1344169072
0.1356486692 0.1356486692 0.1356486692
0.1368888776 0.1368888776 0.1368888776
0.1381375707 0.1381375707 0.1381375707
0.1393947874 0.1393947874 0.1393947874
0.1406605662 0.1406605662 0.1406605662
0.141934946 0.141934946 0.141934946
0.1432179656 0.1432179656 0.1432179656
0.144509664 0.144509664 0.144509664
0.1458100803 0.1458100803 0.1458100803
0.1471192535 0.1471192535 0.1471192535
0.1484372229 0.1484372229 0.1484372229
0.1497640278 0.1497640278 0.1497640278
0.1510997076 0.1510997076 0.1510997076
0.1524443019 0.1524443019 0.1524443019
0.1537978501 0.1537978501 0.1537978501
0.1551603919 0.1551603919 0.1551603919
0.1565319672 0.1565319672 0.1565319672
0.1579126156 0.1579126156 0.1579126156
0.1593023772 0.1593023772 0.1593023772
0.160701292 0.160701292 0.160701292
0.1621094001 0.1621094001 0.1621094001
0.1635267416 0.1635267416 0.1635267416
0.1649533569 0.1649533569 0.1649533569
0.1663892862 0.1663892862 0.1663892862
0.1678345701 0.1678345701 0.1678345701
0.1692892491 0.1692892491 0.1692892491
0.1707533638 0.1707533638 0.1707533638
0.172226955 0.172226955 0.172226955
0.1737100634 0.1737100634 0.1737100634
0.1752027299 0.1752027299 0.1752027299
0.1767049955 0.1767049955 0.1767049955
0.1782169013 0.1782169013 0.1782169013
0.1797384884 0.1797384884 0.1797384884
0.1812697981 0.1812697981 0.1812697981
0.1828108717 0.1828108717 0.1828108717
0.1843617505 0.1843617505 0.1843617505
0.1859224762 0.1859224762 0.1859224762
0.1874930903 0.1874930903 0.1874930903
0.1890736345 0.1890736345 0.1890736345
0.1906641506 0.1906641506 0.1906641506
0.1922646803 0.1922646803 0.1922646803
0.1938752657 0.1938752657 0.1938752657
0.1954959488 0.1954959488 0.1954959488
0.1971267716 0.1971267716 0.1971267716
0.1987677765 0.1987677765 0.1987677765
0.2004190056 0.2004190056 0.2004190056
0.2020805015 0.2020805015 0.2020805015
0.2037523064 0.2037523064 0.2037523064
0.2054344631 0.2054344631 0.2054344631
0.2071270141 0.2071270141 0.2071270141
0.2088300022 0.2088300022 0.2088300022
0.2105434701 0.2105434701 0.2105434701
0.2122674609 0.2122674609 0.2122674609
0.2140020174 0.2140020174 0.2140020174
0.2157471829 0.2157471829 0.2157471829
0.2175030003 0.2175030003 0.2175030003
0.2192695131 0.2192695131 0.2192695131
0.2210467645 0.2210467645 0.2210467645
0.222834798 0.222834798 0.222834798
0.2246336571 0.2246336571 0.2246336571
0.2264433853 0.2264433853 0.2264433853
0.2282640265 0.2282640265 0.2282640265
0.2300956244 0.2300956244 0.2300956244
0.2319382228 0.2319382228 0.2319382228
0.2337918657 0.2337918657 0.2337918657
0.2356565972 0.2356565972 0.2356565972
0.2375324613 0.2375324613 0.2375324613
0.2394195024 0.2394195024 0.2394195024
0.2413177647 0.2413177647 0.2413177647
0.2432272926 0.2432272926 0.2432272926
0.2451481306 0.2451481306 0.2451481306
0.2470803233 0.2470803233 0.2470803233
0.2490239153 0.2490239153 0.2490239153
0.2509789514 0.2509789514 0.2509789514
0.2529454763 0.2529454763 0.2529454763
0.2549235352 0.2549235352 0.2549235352
0.2569131728 0.2569131728 0.2569131728
0.2589144345 0.2589144345 0.2589144345
0.2609273652 0.2609273652 0.2609273652
0.2629520103 0.2629520103 0.2629520103
0.2649884152 0.2649884152 0.2649884152
0.2670366254 0.2670366254 0.2670366254
0.2690966862 0.2690966862 0.2690966862
0.2711686434 0.2711686434 0.2711686434
0.2732525427 0.2732525427 0.2732525427
0.2753484299 0.2753484299 0.2753484299
0.2774563509 0.2774563509 0.2774563509
0.2795763516 0.2795763516 0.2795763516
0.2817084781 0.2817084781 0.2817084781
0.2838527765 0.2838527765 0.2838527765
0.2860092931 0.2860092931 0.2860092931
0.2881780743 0.2881780743 0.2881780743
0.2903591663 0.2903591663 0.2903591663
0.2925526158 0.2925526158 0.2925526158
0.2947584693 0.2947584693 0.2947584693
0.2969767735 0.2969767735 0.2969767735
0.2992075752 0.2992075752 0.2992075752
0.3014509211 0.3014509211 0.3014509211
0.3037068583 0.3037068583 0.3037068583
0.3059754338 0.3059754338 0.3059754338
0.3082566946 0.3082566946 0.3082566946
0.310550688 0.310550688 0.310550688
0.3128574613 0.3128574613 0.3128574613
0.3151770619 0.3151770619 0.3151770619
0.3175095371 0.3175095371 0.3175095371
0.3198549346 0.3198549346 0.3198549346
0.322213302 0.322213302 0.322213302
0.3245846871 0.3245846871 0.3245846871
0.3269691376 0.3269691376 0.3269691376
0.3293667014 0.3293667014 0.3293667014
0.3317774266 0.3317774266 0.3317774266
0.3342013612 0.3342013612 0.3342013612
0.3366385534 0.3366385534 0.3366385534
0.3390890514 0.3390890514 0.3390890514
0.3415529036 0.3415529036 0.3415529036
0.3440301584 0.3440301584 0.3440301584
0.3465208643 0.3465208643 0.3465208643
0.34902507 0.34902507 0.34902507
0.351542824 0.351542824 0.351542824
0.3540741753 0.3540741753 0.3540741753
0.3566191726 0.3566191726 0.3566191726
0.3591778649 0.3591778649 0.3591778649
